packages/icons/src/components/Icon/assets/small-solid/star.svg

<svg width="16" height="16" viewBox="0 0 16 16" fill="none" xmlns="http://www.w3.org/2000/svg">
<path fill-rule="evenodd" clip-rule="evenodd" d="M8 2C8.32846 2 8.62466 2.19179 8.7508 2.48613L10.2807 6.05619L14.2518 6.36518C14.5792 6.39065 14.8587 6.6048 14.9602 6.90799C15.0617 7.21117 14.9653 7.54385 14.7158 7.75124L11.6903 10.2666L12.6146 14.0277C12.6908 14.3378 12.5673 14.6619 12.3016 14.8493C12.0359 15.0367 11.6801 15.0505 11.3998 14.8843L8 12.8688L4.6002 14.8843C4.31989 15.0505 3.96411 15.0367 3.69838 14.8493C3.43265 14.6619 3.30917 14.3378 3.38538 14.0277L4.30973 10.2666L1.28419 7.75124C1.03474 7.54385 0.938335 7.21117 1.03983 6.90799C1.14133 6.6048 1.4208 6.39065 1.7482 6.36518L5.71929 6.05619L7.2492 2.48613C7.37534 2.19179 7.67154 2 8 2Z" />
</svg>

<svg xmlns="http://www.w3.org/2000/svg" width="16" height="16" fill="none" viewBox="0 0 16 16">
    <path d="M8 2c.328 0 .625.192.75.486l1.53 3.57 3.972.31a.81.81 0 0 1 .708.542.77.77 0 0 1-.244.843l-3.026 2.516.925 3.76a.78.78 0 0 1-.313.822.83.83 0 0 1-.902.035L8 12.87l-3.4 2.015a.83.83 0 0 1-.902-.035.78.78 0 0 1-.313-.821l.925-3.761L1.284 7.75a.775.775 0 0 1-.244-.843.81.81 0 0 1 .708-.543l3.971-.309 1.53-3.57A.81.81 0 0 1 8 2" clip-rule="evenodd"/>
</svg>
